X: 27943
T: Mountains Of Mourne, The
R: waltz
M: 3/4
K: Gmajor
|:D2|D2 B2 B2|B2 A2 G2|A2 G2 E2|E4 E2|
E2 D2 D2|D2 E2 F2|A2 G2 G2|G4 D2|
D2 B2 B2|B2 A2 G2|A2 G2 E2|E4 E2|
E2 D2 D2|D2 E2 F2|A2 G2 G2|G4 DD|
D2 c2 c2|c2 d2 c2|c2 B2 A2|B4 DD|
D2 G2 B2|d2 c2 B2|B2 A2 G2|A4 DD|
D2 B2 B2|B2 A2 G2|A2 G2 E2|E4 EE|
E2 D2 D2|D2 E2 F2|A2 G2 G2|G4:|

